X: 1
T: Walk Old Shoe, Heel Come a-Draggin
C:
O: V.T. Williams
R: march, reel
S: https://tunearch.org/wiki/Walk_Old_Shoe_Heel_Come_A-Dragging
S: from Pauline McGinnis, Vienna, IL
N: Fiddle Hell class 2021-11-5
Z: V.T. Williams
M: C|
K: D
A, | "D"A,2D2 F2A2 |    d2dA BAFD | F-A2B AFDE |1 "A"FDE2 E3A,- :|2 "A"FDEF "D"D3 :|
|: A | "D"d2f2 f2d2 | "G"edBA BAFD | "D"F-A2B AFDE |1 "A"FDE2 E3A- :|2 "A"FDEF "D"D3 :|
